img/logo-design-odd.svg

<svg width="156" height="96" viewBox="0 0 156 96" fill="none" xmlns="http://www.w3.org/2000/svg">
<path d="M11.3353 37.4261C9.34671 37.4261 7.54558 36.9148 5.93194 35.892C4.32967 34.858 3.05694 33.3409 2.11376 31.3409C1.18194 29.3295 0.716031 26.8636 0.716031 23.9432C0.716031 20.9432 1.19899 18.4489 2.16489 16.4602C3.1308 14.4602 4.41489 12.9659 6.01717 11.9773C7.6308 10.9773 9.39785 10.4773 11.3183 10.4773C12.7842 10.4773 14.0058 10.7273 14.9831 11.2273C15.9717 11.7159 16.7672 12.3295 17.3694 13.0682C17.9831 13.7955 18.449 14.5114 18.7672 15.2159H18.9888V2.09091H26.2331V37H19.074V32.8068H18.7672C18.4263 33.5341 17.9433 34.2557 17.3183 34.9716C16.7047 35.6761 15.9035 36.2614 14.9149 36.7273C13.9376 37.1932 12.7444 37.4261 11.3353 37.4261ZM13.6365 31.6477C14.8069 31.6477 15.7956 31.3295 16.6024 30.6932C17.4206 30.0455 18.0456 29.142 18.4774 27.983C18.9206 26.8239 19.1422 25.4659 19.1422 23.9091C19.1422 22.3523 18.9263 21 18.4944 19.8523C18.0626 18.7045 17.4376 17.8182 16.6194 17.1932C15.8013 16.5682 14.8069 16.2557 13.6365 16.2557C12.4433 16.2557 11.4376 16.5795 10.6194 17.2273C9.80126 17.875 9.18194 18.7727 8.76149 19.9205C8.34103 21.0682 8.1308 22.3977 8.1308 23.9091C8.1308 25.4318 8.34103 26.7784 8.76149 27.9489C9.1933 29.108 9.81262 30.017 10.6194 30.6761C11.4376 31.3239 12.4433 31.6477 13.6365 31.6477ZM44.1351 37.5114C41.4419 37.5114 39.1237 36.9659 37.1805 35.875C35.2487 34.7727 33.7601 33.2159 32.7146 31.2045C31.6692 29.1818 31.1464 26.7898 31.1464 24.0284C31.1464 21.3352 31.6692 18.9716 32.7146 16.9375C33.7601 14.9034 35.2317 13.3182 37.1294 12.1818C39.0385 11.0455 41.2771 10.4773 43.8453 10.4773C45.5726 10.4773 47.1805 10.7557 48.6692 11.3125C50.1692 11.858 51.476 12.6818 52.5896 13.7841C53.7146 14.8864 54.5896 16.2727 55.2146 17.9432C55.8396 19.6023 56.1521 21.5455 56.1521 23.7727V25.767H34.0442V21.267H49.3169C49.3169 20.2216 49.0896 19.2955 48.6351 18.4886C48.1805 17.6818 47.5498 17.0511 46.743 16.5966C45.9476 16.1307 45.0214 15.8977 43.9646 15.8977C42.8623 15.8977 41.8851 16.1534 41.0328 16.6648C40.1919 17.1648 39.5328 17.8409 39.0555 18.6932C38.5782 19.5341 38.3339 20.4716 38.3226 21.5057V25.7841C38.3226 27.0795 38.5612 28.1989 39.0385 29.142C39.5271 30.0852 40.2146 30.8125 41.101 31.3239C41.9873 31.8352 43.0385 32.0909 44.2544 32.0909C45.0612 32.0909 45.7998 31.9773 46.4703 31.75C47.1407 31.5227 47.7146 31.1818 48.1919 30.7273C48.6692 30.2727 49.0328 29.7159 49.2828 29.0568L55.9987 29.5C55.6578 31.1136 54.9589 32.5227 53.9021 33.7273C52.8567 34.9205 51.5044 35.8523 49.8453 36.5227C48.1976 37.1818 46.2942 37.5114 44.1351 37.5114ZM82.6748 18.2841L76.0271 18.6932C75.9135 18.125 75.6692 17.6136 75.2942 17.1591C74.9192 16.6932 74.4248 16.3239 73.8112 16.0511C73.2089 15.767 72.4873 15.625 71.6464 15.625C70.5214 15.625 69.5726 15.8636 68.7998 16.3409C68.0271 16.8068 67.6407 17.4318 67.6407 18.2159C67.6407 18.8409 67.8907 19.3693 68.3907 19.8011C68.8907 20.233 69.7487 20.5795 70.9646 20.8409L75.7032 21.7955C78.2487 22.3182 80.1464 23.1591 81.3964 24.3182C82.6464 25.4773 83.2714 27 83.2714 28.8864C83.2714 30.6023 82.7657 32.108 81.7544 33.4034C80.7544 34.6989 79.3794 35.7102 77.6294 36.4375C75.8907 37.1534 73.8851 37.5114 71.6123 37.5114C68.1464 37.5114 65.3851 36.7898 63.3282 35.3466C61.2828 33.892 60.0839 31.9148 59.7317 29.4148L66.8737 29.0398C67.0896 30.0966 67.6123 30.9034 68.4419 31.4602C69.2714 32.0057 70.3339 32.2784 71.6294 32.2784C72.9021 32.2784 73.9248 32.0341 74.6976 31.5455C75.4817 31.0455 75.8794 30.4034 75.8907 29.6193C75.8794 28.9602 75.601 28.4205 75.0555 28C74.5101 27.5682 73.6692 27.2386 72.5328 27.0114L67.9987 26.108C65.4419 25.5966 63.5385 24.7102 62.2885 23.4489C61.0498 22.1875 60.4305 20.5795 60.4305 18.625C60.4305 16.9432 60.8851 15.4943 61.7942 14.2784C62.7146 13.0625 64.0044 12.125 65.6635 11.4659C67.3339 10.8068 69.2885 10.4773 71.5271 10.4773C74.8339 10.4773 77.4362 11.1761 79.3339 12.5739C81.243 13.9716 82.3567 15.875 82.6748 18.2841ZM87.8439 37V10.8182H95.1052V37H87.8439ZM91.4916 7.44318C90.4121 7.44318 89.4859 7.08523 88.7132 6.36932C87.9518 5.64204 87.5711 4.77273 87.5711 3.76136C87.5711 2.76136 87.9518 1.90341 88.7132 1.1875C89.4859 0.460226 90.4121 0.0965891 91.4916 0.0965891C92.5711 0.0965891 93.4916 0.460226 94.253 1.1875C95.0257 1.90341 95.4121 2.76136 95.4121 3.76136C95.4121 4.77273 95.0257 5.64204 94.253 6.36932C93.4916 7.08523 92.5711 7.44318 91.4916 7.44318ZM112.717 47.3636C110.365 47.3636 108.348 47.0398 106.666 46.392C104.996 45.7557 103.666 44.8864 102.678 43.7841C101.689 42.6818 101.047 41.4432 100.752 40.0682L107.467 39.1648C107.672 39.6875 107.996 40.1761 108.439 40.6307C108.882 41.0852 109.467 41.4489 110.195 41.7216C110.933 42.0057 111.831 42.1477 112.888 42.1477C114.467 42.1477 115.769 41.7614 116.791 40.9886C117.825 40.2273 118.342 38.9489 118.342 37.1534V32.3636H118.036C117.717 33.0909 117.24 33.7784 116.604 34.4261C115.967 35.0739 115.149 35.6023 114.149 36.0114C113.149 36.4205 111.956 36.625 110.57 36.625C108.604 36.625 106.814 36.1705 105.2 35.2614C103.598 34.3409 102.32 32.9375 101.365 31.0511C100.422 29.1534 99.9504 26.7557 99.9504 23.858C99.9504 20.892 100.433 18.4148 101.399 16.4261C102.365 14.4375 103.649 12.9489 105.252 11.9602C106.865 10.9716 108.632 10.4773 110.553 10.4773C112.019 10.4773 113.246 10.7273 114.234 11.2273C115.223 11.7159 116.019 12.3295 116.621 13.0682C117.234 13.7955 117.706 14.5114 118.036 15.2159H118.308V10.8182H125.519V37.2557C125.519 39.483 124.973 41.3466 123.882 42.8466C122.791 44.3466 121.28 45.4716 119.348 46.2216C117.428 46.983 115.217 47.3636 112.717 47.3636ZM112.871 31.1705C114.041 31.1705 115.03 30.8807 115.837 30.3011C116.655 29.7102 117.28 28.8693 117.712 27.7784C118.155 26.6761 118.377 25.358 118.377 23.8239C118.377 22.2898 118.161 20.9602 117.729 19.8352C117.297 18.6989 116.672 17.8182 115.854 17.1932C115.036 16.5682 114.041 16.2557 112.871 16.2557C111.678 16.2557 110.672 16.5795 109.854 17.2273C109.036 17.8636 108.416 18.75 107.996 19.8864C107.575 21.0227 107.365 22.3352 107.365 23.8239C107.365 25.3352 107.575 26.642 107.996 27.7443C108.428 28.8352 109.047 29.6818 109.854 30.2841C110.672 30.875 111.678 31.1705 112.871 31.1705ZM138.558 21.8636V37H131.297V10.8182H138.217V15.4375H138.524C139.104 13.9148 140.075 12.7102 141.439 11.8239C142.803 10.9261 144.456 10.4773 146.399 10.4773C148.217 10.4773 149.803 10.875 151.155 11.6705C152.507 12.4659 153.558 13.6023 154.308 15.0795C155.058 16.5455 155.433 18.2955 155.433 20.3295V37H148.172V21.625C148.183 20.0227 147.774 18.7727 146.945 17.875C146.115 16.9659 144.973 16.5114 143.519 16.5114C142.541 16.5114 141.678 16.7216 140.928 17.142C140.189 17.5625 139.609 18.1761 139.189 18.983C138.78 19.7784 138.57 20.7386 138.558 21.8636ZM34.1017 77.7841V83.5455H18.1812V77.7841H34.1017ZM52.1187 95.5114C49.471 95.5114 47.1812 94.9489 45.2494 93.8239C43.329 92.6875 41.846 91.108 40.8005 89.0852C39.7551 87.0511 39.2324 84.6932 39.2324 82.0114C39.2324 79.3068 39.7551 76.9432 40.8005 74.9205C41.846 72.8864 43.329 71.3068 45.2494 70.1818C47.1812 69.0455 49.471 68.4773 52.1187 68.4773C54.7665 68.4773 57.0505 69.0455 58.971 70.1818C60.9028 71.3068 62.3915 72.8864 63.4369 74.9205C64.4824 76.9432 65.0051 79.3068 65.0051 82.0114C65.0051 84.6932 64.4824 87.0511 63.4369 89.0852C62.3915 91.108 60.9028 92.6875 58.971 93.8239C57.0505 94.9489 54.7665 95.5114 52.1187 95.5114ZM52.1528 89.8864C53.3574 89.8864 54.363 89.5455 55.1699 88.8636C55.9767 88.1705 56.5846 87.2273 56.9937 86.0341C57.4142 84.8409 57.6244 83.483 57.6244 81.9602C57.6244 80.4375 57.4142 79.0795 56.9937 77.8864C56.5846 76.6932 55.9767 75.75 55.1699 75.0568C54.363 74.3636 53.3574 74.017 52.1528 74.017C50.9369 74.017 49.9142 74.3636 49.0846 75.0568C48.2665 75.75 47.6471 76.6932 47.2267 77.8864C46.8176 79.0795 46.613 80.4375 46.613 81.9602C46.613 83.483 46.8176 84.8409 47.2267 86.0341C47.6471 87.2273 48.2665 88.1705 49.0846 88.8636C49.9142 89.5455 50.9369 89.8864 52.1528 89.8864ZM79.3744 95.4261C77.3858 95.4261 75.5846 94.9148 73.971 93.892C72.3687 92.858 71.096 91.3409 70.1528 89.3409C69.221 87.3295 68.7551 84.8636 68.7551 81.9432C68.7551 78.9432 69.238 76.4489 70.204 74.4602C71.1699 72.4602 72.454 70.9659 74.0562 69.9773C75.6699 68.9773 77.4369 68.4773 79.3574 68.4773C80.8233 68.4773 82.0449 68.7273 83.0221 69.2273C84.0108 69.7159 84.8062 70.3295 85.4085 71.0682C86.0221 71.7955 86.488 72.5114 86.8062 73.2159H87.0278V60.0909H94.2721V95H87.113V90.8068H86.8062C86.4653 91.5341 85.9824 92.2557 85.3574 92.9716C84.7437 93.6761 83.9426 94.2614 82.954 94.7273C81.9767 95.1932 80.7835 95.4261 79.3744 95.4261ZM81.6755 89.6477C82.846 89.6477 83.8346 89.3295 84.6415 88.6932C85.4596 88.0455 86.0846 87.142 86.5165 85.983C86.9596 84.8239 87.1812 83.4659 87.1812 81.9091C87.1812 80.3523 86.9653 79 86.5335 77.8523C86.1017 76.7045 85.4767 75.8182 84.6585 75.1932C83.8403 74.5682 82.846 74.2557 81.6755 74.2557C80.4824 74.2557 79.4767 74.5795 78.6585 75.2273C77.8403 75.875 77.221 76.7727 76.8005 77.9205C76.3801 79.0682 76.1699 80.3977 76.1699 81.9091C76.1699 83.4318 76.3801 84.7784 76.8005 85.9489C77.2324 87.108 77.8517 88.017 78.6585 88.6761C79.4767 89.3239 80.4824 89.6477 81.6755 89.6477ZM109.89 95.4261C107.901 95.4261 106.1 94.9148 104.487 93.892C102.884 92.858 101.612 91.3409 100.668 89.3409C99.7366 87.3295 99.2707 84.8636 99.2707 81.9432C99.2707 78.9432 99.7537 76.4489 100.72 74.4602C101.685 72.4602 102.97 70.9659 104.572 69.9773C106.185 68.9773 107.953 68.4773 109.873 68.4773C111.339 68.4773 112.56 68.7273 113.538 69.2273C114.526 69.7159 115.322 70.3295 115.924 71.0682C116.538 71.7955 117.004 72.5114 117.322 73.2159H117.543V60.0909H124.788V95H117.629V90.8068H117.322C116.981 91.5341 116.498 92.2557 115.873 92.9716C115.259 93.6761 114.458 94.2614 113.47 94.7273C112.492 95.1932 111.299 95.4261 109.89 95.4261ZM112.191 89.6477C113.362 89.6477 114.35 89.3295 115.157 88.6932C115.975 88.0455 116.6 87.142 117.032 85.983C117.475 84.8239 117.697 83.4659 117.697 81.9091C117.697 80.3523 117.481 79 117.049 77.8523C116.617 76.7045 115.992 75.8182 115.174 75.1932C114.356 74.5682 113.362 74.2557 112.191 74.2557C110.998 74.2557 109.992 74.5795 109.174 75.2273C108.356 75.875 107.737 76.7727 107.316 77.9205C106.896 79.0682 106.685 80.3977 106.685 81.9091C106.685 83.4318 106.896 84.7784 107.316 85.9489C107.748 87.108 108.367 88.017 109.174 88.6761C109.992 89.3239 110.998 89.6477 112.191 89.6477ZM135.002 95.4432C133.877 95.4432 132.911 95.0455 132.105 94.25C131.309 93.4432 130.911 92.4773 130.911 91.3523C130.911 90.2386 131.309 89.2841 132.105 88.4886C132.911 87.6932 133.877 87.2955 135.002 87.2955C136.093 87.2955 137.048 87.6932 137.866 88.4886C138.684 89.2841 139.093 90.2386 139.093 91.3523C139.093 92.1023 138.9 92.7898 138.514 93.4148C138.139 94.0284 137.644 94.5227 137.031 94.8977C136.417 95.2614 135.741 95.4432 135.002 95.4432Z" fill="black"/>
</svg>

<svg width="156" height="96" fill="none" xmlns="http://www.w3.org/2000/svg"><path d="M11.335 37.426c-1.988 0-3.79-.511-5.403-1.534-1.602-1.034-2.875-2.551-3.818-4.551-.932-2.012-1.398-4.477-1.398-7.398 0-3 .483-5.494 1.449-7.483.966-2 2.25-3.494 3.852-4.483a9.87 9.87 0 015.301-1.5c1.466 0 2.688.25 3.665.75.989.489 1.784 1.102 2.386 1.841.614.728 1.08 1.443 1.398 2.148h.222V2.09h7.244V37h-7.159v-4.193h-.307c-.34.727-.824 1.449-1.449 2.165-.613.704-1.415 1.29-2.403 1.755-.977.466-2.17.7-3.58.7zm2.301-5.778c1.17 0 2.16-.319 2.966-.955.819-.648 1.444-1.551 1.875-2.71.444-1.16.665-2.517.665-4.074s-.216-2.909-.648-4.057c-.431-1.148-1.056-2.034-1.875-2.659-.818-.625-1.812-.937-2.982-.937-1.194 0-2.2.323-3.018.971-.818.648-1.437 1.546-1.858 2.694-.42 1.147-.63 2.477-.63 3.988 0 1.523.21 2.87.63 4.04.432 1.159 1.052 2.068 1.858 2.727.819.648 1.824.972 3.018.972zm30.5 5.863c-2.694 0-5.012-.545-6.956-1.636-1.931-1.102-3.42-2.66-4.465-4.67-1.046-2.023-1.569-4.415-1.569-7.177 0-2.693.523-5.056 1.569-7.09 1.045-2.035 2.517-3.62 4.414-4.756 1.91-1.136 4.148-1.705 6.716-1.705 1.728 0 3.336.279 4.824.835a10.7 10.7 0 013.92 2.472c1.126 1.102 2 2.489 2.626 4.16.625 1.658.937 3.602.937 5.829v1.994H34.044v-4.5h15.273c0-1.045-.227-1.971-.682-2.778a4.884 4.884 0 00-1.892-1.892c-.795-.466-1.722-.7-2.778-.7-1.103 0-2.08.256-2.932.768-.841.5-1.5 1.176-1.977 2.028-.478.841-.722 1.779-.733 2.813v4.278c0 1.296.238 2.415.715 3.358.49.943 1.177 1.67 2.063 2.182.886.511 1.938.767 3.153.767.807 0 1.546-.114 2.216-.341a4.6 4.6 0 001.722-1.023 4.447 4.447 0 001.09-1.67L56 29.5c-.341 1.614-1.04 3.023-2.097 4.227-1.045 1.194-2.398 2.125-4.057 2.796-1.647.659-3.55.988-5.71.988zm38.539-19.227l-6.648.41a3.436 3.436 0 00-.733-1.535c-.375-.466-.87-.835-1.483-1.108-.602-.284-1.324-.426-2.165-.426-1.125 0-2.073.239-2.846.716-.773.466-1.16 1.09-1.16 1.875 0 .625.25 1.153.75 1.585.5.432 1.359.779 2.575 1.04l4.738.954c2.546.523 4.443 1.364 5.693 2.523 1.25 1.16 1.875 2.682 1.875 4.568 0 1.716-.505 3.222-1.517 4.517-1 1.296-2.375 2.307-4.125 3.035-1.738.715-3.744 1.073-6.017 1.073-3.466 0-6.227-.721-8.284-2.164-2.045-1.455-3.244-3.432-3.596-5.932l7.142-.375c.216 1.057.738 1.863 1.568 2.42.83.546 1.892.818 3.187.818 1.273 0 2.296-.244 3.069-.732.784-.5 1.181-1.143 1.193-1.927-.012-.659-.29-1.198-.836-1.619-.545-.432-1.386-.761-2.522-.989l-4.534-.903c-2.557-.511-4.46-1.398-5.71-2.66-1.24-1.26-1.858-2.869-1.858-4.823 0-1.682.454-3.13 1.363-4.347.92-1.216 2.21-2.153 3.87-2.812 1.67-.66 3.624-.989 5.863-.989 3.307 0 5.91.7 7.807 2.097 1.909 1.398 3.023 3.301 3.34 5.71zM87.844 37V10.818h7.261V37h-7.261zm3.648-29.557c-1.08 0-2.006-.358-2.779-1.074-.761-.727-1.142-1.596-1.142-2.608 0-1 .38-1.858 1.142-2.574.773-.727 1.7-1.09 2.779-1.09 1.08 0 2 .363 2.761 1.09.773.716 1.16 1.574 1.16 2.574 0 1.012-.387 1.881-1.16 2.608-.761.716-1.682 1.074-2.761 1.074zm21.225 39.92c-2.352 0-4.369-.323-6.051-.971-1.67-.636-3-1.506-3.988-2.608-.989-1.102-1.631-2.34-1.926-3.716l6.715-.903a4.41 4.41 0 00.972 1.466c.443.454 1.028.818 1.756 1.09.738.285 1.636.427 2.693.427 1.579 0 2.881-.387 3.903-1.16 1.034-.76 1.551-2.04 1.551-3.835v-4.79h-.306c-.319.728-.796 1.415-1.432 2.063-.637.648-1.455 1.176-2.455 1.585-1 .41-2.193.614-3.579.614-1.966 0-3.756-.455-5.37-1.364-1.602-.92-2.88-2.324-3.835-4.21-.943-1.898-1.415-4.295-1.415-7.193 0-2.966.483-5.443 1.449-7.432.966-1.988 2.25-3.477 3.853-4.466 1.613-.988 3.38-1.483 5.301-1.483 1.466 0 2.693.25 3.681.75.989.489 1.785 1.102 2.387 1.841.613.728 1.085 1.443 1.415 2.148h.272v-4.398h7.211v26.438c0 2.227-.546 4.09-1.637 5.59s-2.602 2.626-4.534 3.376c-1.92.761-4.131 1.142-6.631 1.142zm.154-16.192c1.17 0 2.159-.29 2.966-.87.818-.59 1.443-1.432 1.875-2.523.443-1.102.665-2.42.665-3.954 0-1.534-.216-2.864-.648-3.989-.432-1.136-1.057-2.017-1.875-2.642-.818-.625-1.813-.937-2.983-.937-1.193 0-2.199.323-3.017.971-.818.637-1.438 1.523-1.858 2.66-.421 1.136-.631 2.448-.631 3.937 0 1.511.21 2.818.631 3.92.432 1.091 1.051 1.938 1.858 2.54.818.591 1.824.887 3.017.887zm25.687-9.307V37h-7.261V10.818h6.92v4.62h.307a7.305 7.305 0 012.915-3.614c1.364-.898 3.017-1.347 4.96-1.347 1.818 0 3.404.398 4.756 1.194 1.352.795 2.403 1.931 3.153 3.409.75 1.466 1.125 3.216 1.125 5.25V37h-7.261V21.625c.011-1.602-.398-2.852-1.227-3.75-.83-.91-1.972-1.364-3.426-1.364-.978 0-1.841.21-2.591.631-.739.42-1.319 1.034-1.739 1.841-.409.795-.619 1.756-.631 2.88zM34.102 77.784v5.761h-15.92v-5.76h15.92zm18.017 17.727c-2.648 0-4.938-.562-6.87-1.687-1.92-1.136-3.403-2.716-4.449-4.739-1.045-2.034-1.568-4.392-1.568-7.074 0-2.704.523-5.068 1.569-7.09 1.045-2.035 2.528-3.614 4.448-4.74 1.932-1.135 4.222-1.704 6.87-1.704 2.648 0 4.931.569 6.852 1.705 1.932 1.125 3.42 2.704 4.466 4.739 1.045 2.022 1.568 4.386 1.568 7.09 0 2.682-.523 5.04-1.568 7.074-1.045 2.023-2.534 3.603-4.466 4.739-1.92 1.125-4.204 1.687-6.852 1.687zm.034-5.625c1.204 0 2.21-.34 3.017-1.022.807-.694 1.415-1.637 1.824-2.83.42-1.193.63-2.551.63-4.074 0-1.522-.21-2.88-.63-4.074-.41-1.193-1.017-2.136-1.824-2.83-.807-.692-1.813-1.039-3.017-1.039-1.216 0-2.239.347-3.068 1.04-.819.693-1.438 1.636-1.858 2.83-.41 1.192-.614 2.55-.614 4.073 0 1.523.205 2.88.614 4.074.42 1.193 1.04 2.136 1.858 2.83.83.681 1.852 1.022 3.068 1.022zm27.221 5.54c-1.988 0-3.79-.511-5.403-1.534-1.602-1.034-2.875-2.551-3.818-4.551-.932-2.011-1.398-4.477-1.398-7.398 0-3 .483-5.494 1.449-7.483.966-2 2.25-3.494 3.852-4.483a9.87 9.87 0 015.301-1.5c1.466 0 2.688.25 3.665.75.989.489 1.784 1.102 2.386 1.841.614.728 1.08 1.443 1.398 2.148h.222V60.09h7.244V95h-7.159v-4.193h-.307c-.34.727-.824 1.449-1.449 2.165-.613.704-1.414 1.29-2.403 1.755-.977.466-2.17.7-3.58.7zm2.302-5.778c1.17 0 2.159-.319 2.965-.955.819-.647 1.444-1.551 1.875-2.71.444-1.16.665-2.517.665-4.074s-.216-2.909-.647-4.057c-.432-1.148-1.057-2.034-1.876-2.659-.818-.625-1.812-.937-2.983-.937-1.193 0-2.198.323-3.016.971-.819.648-1.438 1.546-1.859 2.694-.42 1.147-.63 2.477-.63 3.988 0 1.523.21 2.87.63 4.04.432 1.159 1.052 2.068 1.859 2.727.818.648 1.823.972 3.016.972zm28.214 5.778c-1.989 0-3.79-.511-5.403-1.534-1.603-1.034-2.875-2.551-3.819-4.551-.931-2.011-1.397-4.477-1.397-7.398 0-3 .483-5.494 1.449-7.483.965-2 2.25-3.494 3.852-4.483a9.87 9.87 0 015.301-1.5c1.466 0 2.687.25 3.665.75.988.489 1.784 1.102 2.386 1.841.614.728 1.08 1.443 1.398 2.148h.221V60.09h7.245V95h-7.159v-4.193h-.307c-.341.727-.824 1.449-1.449 2.165-.614.704-1.415 1.29-2.403 1.755-.978.466-2.171.7-3.58.7zm2.301-5.778c1.171 0 2.159-.319 2.966-.955.818-.647 1.443-1.551 1.875-2.71.443-1.16.665-2.517.665-4.074s-.216-2.909-.648-4.057c-.432-1.148-1.057-2.034-1.875-2.659-.818-.625-1.812-.937-2.983-.937-1.193 0-2.199.323-3.017.971-.818.648-1.437 1.546-1.858 2.694-.42 1.147-.631 2.477-.631 3.988 0 1.523.211 2.87.631 4.04.432 1.159 1.051 2.068 1.858 2.727.818.648 1.824.972 3.017.972zm22.811 5.795c-1.125 0-2.091-.397-2.897-1.193-.796-.807-1.194-1.773-1.194-2.898 0-1.113.398-2.068 1.194-2.863.806-.796 1.772-1.194 2.897-1.194 1.091 0 2.046.398 2.864 1.194.818.795 1.227 1.75 1.227 2.863a3.85 3.85 0 01-.579 2.063 4.414 4.414 0 01-1.483 1.483 3.907 3.907 0 01-2.029.545z" fill="#000"/></svg>
